X: 29353
T: Newmarket
R: polka
M: 2/4
K: Dmajor
A2 Af|ed Bd|A2 Af|ed d2|
A2 Af|ed Bd|1 A2 af|ed d2:|2 A2 a>f|ed de||
fa e>f|ed Bd|fa e>f|ed d>e|
fa e>f|ed Bd|1 a2 Af|ed d>e:|2 A2 a>f|ed d2||

